X:1
T:Title
%%score { ( 1 3 ) | ( 2 4 ) }
L:1/8
Q:1/4=100
M:4/4
K:Ab
V:1 treble nm="Grand Piano"
V:3 treble 
V:2 bass 
V:4 bass 
V:1
 [CE]>[CA] [Ec]>[Fd] [Ec]2 [CA]2 | [DF]>[Fc] [DFA]>[DF] [CA]4 | [CE]>[CA] [Ec]>[Fd] [Ec]2 [CA]2 | %3
w: John~R.~Bryant * * * * *|||
 [=DF]>[Dd] [Dd]>[Dc] [_Dc]4 | [CE]>[CA] [Ec]>[Fd] [Ec]2 [CA]2 | F>F B>[Ec] [Fd]4 | f>e c>A c2 B2 | %7
w: ||||
 [CA]6 z2 | e>=d f>e c2 [EA]2 | E2 E2 E2 z2 | e>=d f>e c2 [EA]2 | B6 z2 | %12
w: |||||
 E>[Gd] [Gd]>[Ge] [Gd]2 B2 | c>f e>c A,2- [A,F]2 | E>A c>d c2 B2 | A6 z2 |] %16
w: ||||
V:2
 [A,,A,]>[A,,A,] [A,,A,]>[A,,A,] [A,,A,]2 [A,,A,]2 | [D,A,]>[D,A,] D,>D, A,,4 | %2
 [A,,A,]>[A,,A,] [A,,A,]>[A,,A,] [A,,A,]2 [A,,A,]2 | [B,,A,]>[B,,A,] [B,,A,]>[B,,A,] [E,G,]4 | %4
 [A,,A,]>[A,,A,] [A,,A,]>[A,,A,] [A,,A,]2 [A,,A,]2 | [D,A,D]>[D,A,D] [D,F,D]>[C,=A,] [B,,B,]4 | %6
 [E,E]>[E,E] [E,E]>[E,C] [E,E]2 [E,D]2 | A,,6 z2 | %8
 [A,CE]>[A,_CA] [A,DA]>[A,=CA] [A,A]2[K:bass] [A,,A,]2 | [E,G,]2 [E,G,]2 [E,G,]2 z2 | %10
 [A,CE]>[A,_CA] [A,DA]>[A,=CA] [A,A]2[K:bass] [A,,A,]2 | [E,G,E]2 [E,G,]2 [E,G,]2 z2 | %12
 [E,G,]>[E,B,] [E,B,]>[E,C] [E,B,]2 [E,G,E]2 | [A,E]>[A,CA] [A,CA]>[K:bass][A,E] z2 D2 | %14
 [E,A,C]>[E,A,C] [E,A,E]>[E,A,F] [E,A,E]2 [E,G,D]2 | z2 G,2 E,2 z2 |] %16
V:3
 x8 | x8 | x8 | x8 | x8 | x8 | x8 | x8 | x8 | x8 | x8 | z2 E2 E2 z2 | x8 | z4 [FA]2 z2 | x8 | %15
 [A,C]2 D2 C2 z2 |] %16
V:4
 x8 | x8 | x8 | x8 | x8 | x8 | x8 | x8 | x6[K:bass] x2 | x8 | x6[K:bass] x2 | x8 | x8 | %13
 z4[K:bass] D,4 | x8 | A,,6 z2 |] %16

